X:306
T:Syparegubbe, Anglais efter Nils Gustav Lavin
M:2/4
L:1/8
R:Engelska
O:Markaryd, Småland
S:efter Nils Gustav Lavin
B:Svenska låtar Småland
H:Efter Johan på Hassen, en gammal 'syparegubbe' från Hamneda socken.
N:Anglais, brännvinspolska, Sv. L. Sm. 238
K:D
|:Ad fa|a/2(g/2e/2)(g/2 f)d|Ad fa|a/2(g/2e/2)(g/2 d2):|
|:a/2(g/2e/2)(g/2 f)d/2f/2|a/2(g/2e/2)(g/2 f)d/2f/2|a/2(g/2e/2)(g/2 f)d/2f/2|a/2(g/2e/2)c/2 [dD]2:|

(:musicend:)

(:music:)
